dist/img/levels-training/tab-image.svg

<svg width="608" height="262" viewBox="0 0 608 262" fill="none" xmlns="http://www.w3.org/2000/svg">
<path d="M567.571 227.395L568.484 227.395L568.484 4.27109L567.571 4.27109L567.571 227.395Z" fill="#A7A9D4"/>
<path d="M567.994 1.03738C566.093 1.03738 564.551 2.57956 564.551 4.48195C564.551 6.38433 566.093 7.92651 567.994 7.92651C569.894 7.92651 571.436 6.38433 571.436 4.48195C571.436 2.57957 569.894 1.03738 567.994 1.03738Z" fill="white"/>
<path d="M571.927 4.48204C571.927 6.66125 570.171 8.34839 568.063 8.34839C565.886 8.34839 564.2 6.59096 564.2 4.48204C564.2 2.30283 565.956 0.615692 568.063 0.615692C570.171 0.615692 571.927 2.37312 571.927 4.48204C571.927 6.66125 571.927 2.37312 571.927 4.48204ZM565.043 4.48204C565.043 6.09888 566.377 7.43453 567.993 7.43453C569.609 7.43453 570.943 6.09888 570.943 4.48204C570.943 2.8652 569.609 1.52955 567.993 1.52955C566.377 1.52955 565.043 2.8652 565.043 4.48204C565.043 6.16917 565.043 2.8652 565.043 4.48204Z" fill="#A7A9D4"/>
<path d="M516.292 233.395L517.205 233.395L517.205 10.2711L516.292 10.2711L516.292 233.395Z" fill="#A7A9D4"/>
<path d="M516.714 7.03735C514.813 7.03735 513.272 8.57954 513.272 10.4819C513.272 12.3843 514.813 13.9265 516.714 13.9265C518.615 13.9265 520.156 12.3843 520.156 10.4819C520.156 8.57954 518.615 7.03735 516.714 7.03735Z" fill="white"/>
<path d="M520.647 10.482C520.647 12.6612 518.891 14.3484 516.784 14.3484C514.606 14.3484 512.92 12.5909 512.92 10.482C512.92 8.3028 514.677 6.61566 516.784 6.61566C518.891 6.61566 520.647 8.3731 520.647 10.482C520.647 12.6612 520.647 8.3731 520.647 10.482ZM513.763 10.482C513.763 12.0989 515.098 13.4345 516.714 13.4345C518.329 13.4345 519.664 12.0989 519.664 10.482C519.664 8.86518 518.329 7.52952 516.714 7.52952C515.098 7.52952 513.763 8.86518 513.763 10.482C513.763 12.1692 513.763 8.86518 513.763 10.482Z" fill="#A7A9D4"/>
<path d="M465.013 241.395L465.926 241.395L465.926 18.2711L465.013 18.2711L465.013 241.395Z" fill="#A7A9D4"/>
<path d="M468.876 18.4819C468.876 16.5839 467.331 15.0374 465.434 15.0374C463.537 15.0374 461.992 16.5839 461.992 18.4819C461.992 20.38 463.537 21.9265 465.434 21.9265C467.331 21.9265 468.876 20.38 468.876 18.4819Z" fill="white"/>
<path d="M469.298 18.482C469.298 20.6612 467.542 22.3484 465.434 22.3484C463.257 22.3484 461.571 20.5909 461.571 18.482C461.571 16.3028 463.327 14.6157 465.434 14.6157C467.612 14.6157 469.298 16.3731 469.298 18.482C469.298 20.6612 469.298 16.3731 469.298 18.482ZM462.484 18.482C462.484 20.0989 463.819 21.4345 465.434 21.4345C467.05 21.4345 468.385 20.0989 468.385 18.482C468.385 16.8652 467.05 15.5295 465.434 15.5295C463.819 15.5295 462.484 16.8652 462.484 18.482C462.484 20.1692 462.484 16.8652 462.484 18.482Z" fill="#A7A9D4"/>
<path d="M413.663 249.395L414.576 249.395L414.576 26.2711L413.663 26.2711L413.663 249.395Z" fill="#A7A9D4"/>
<path d="M414.155 23.0374C412.254 23.0374 410.713 24.5796 410.713 26.4819C410.713 28.3843 412.254 29.9265 414.155 29.9265C416.056 29.9265 417.597 28.3843 417.597 26.4819C417.597 24.5796 416.056 23.0374 414.155 23.0374Z" fill="white"/>
<path d="M418.019 26.482C418.019 28.6612 416.262 30.3484 414.155 30.3484C411.977 30.3484 410.292 28.5909 410.292 26.482C410.292 24.3028 412.048 22.6157 414.155 22.6157C416.262 22.6157 418.019 24.3731 418.019 26.482C418.019 28.6612 418.019 24.3731 418.019 26.482ZM411.134 26.482C411.134 28.0989 412.469 29.4345 414.085 29.4345C415.7 29.4345 417.035 28.0989 417.035 26.482C417.035 24.8652 415.7 23.5295 414.085 23.5295C412.469 23.5295 411.134 24.8652 411.134 26.482C411.134 28.1692 411.134 24.8652 411.134 26.482Z" fill="#A7A9D4"/>
<path d="M362.384 254.395L363.297 254.395L363.297 31.2711L362.384 31.2711L362.384 254.395Z" fill="#A7A9D4"/>
<path d="M362.875 28.0374C360.974 28.0374 359.433 29.5796 359.433 31.4819C359.433 33.3843 360.974 34.9265 362.875 34.9265C364.776 34.9265 366.317 33.3843 366.317 31.4819C366.317 29.5796 364.776 28.0374 362.875 28.0374Z" fill="white"/>
<path d="M366.739 31.482C366.739 33.6612 364.983 35.3484 362.876 35.3484C360.698 35.3484 359.012 33.5909 359.012 31.482C359.012 29.3028 360.768 27.6157 362.876 27.6157C364.983 27.6157 366.739 29.3731 366.739 31.482C366.739 33.6612 366.739 29.3731 366.739 31.482ZM359.855 31.482C359.855 33.0989 361.19 34.4345 362.805 34.4345C364.421 34.4345 365.756 33.0989 365.756 31.482C365.756 29.8652 364.421 28.5295 362.805 28.5295C361.19 28.5295 359.855 29.8652 359.855 31.482C359.855 33.1692 359.855 29.8652 359.855 31.482Z" fill="#A7A9D4"/>
<path d="M311.104 261.395L312.018 261.395L312.018 38.2711L311.104 38.2711L311.104 261.395Z" fill="#A7A9D4"/>
<path d="M311.527 35.0374C309.626 35.0374 308.085 36.5796 308.085 38.4819C308.085 40.3843 309.626 41.9265 311.527 41.9265C313.428 41.9265 314.969 40.3843 314.969 38.4819C314.969 36.5796 313.428 35.0374 311.527 35.0374Z" fill="white"/>
<path d="M315.46 38.482C315.46 40.6612 313.704 42.3484 311.596 42.3484C309.419 42.3484 307.733 40.5909 307.733 38.482C307.733 36.3028 309.489 34.6157 311.596 34.6157C313.704 34.6157 315.46 36.3731 315.46 38.482C315.46 40.6612 315.46 36.3731 315.46 38.482ZM308.576 38.482C308.576 40.0989 309.911 41.4345 311.526 41.4345C313.142 41.4345 314.477 40.0989 314.477 38.482C314.477 36.8652 313.142 35.5295 311.526 35.5295C309.911 35.5295 308.576 36.8652 308.576 38.482C308.576 40.1692 308.576 36.8652 308.576 38.482Z" fill="#A7A9D4"/>
<path d="M260 261.616L261 261.616L261 44.6157L260 44.6157L260 261.616Z" fill="#A7A9D4"/>
<path d="M260.247 41.0374C258.346 41.0374 256.805 42.5796 256.805 44.4819C256.805 46.3843 258.346 47.9265 260.247 47.9265C262.148 47.9265 263.689 46.3843 263.689 44.4819C263.689 42.5796 262.148 41.0374 260.247 41.0374Z" fill="white"/>
<path d="M264.181 44.482C264.181 46.6613 262.425 48.3484 260.317 48.3484C258.14 48.3484 256.454 46.591 256.454 44.482C256.454 42.3028 258.21 40.6157 260.317 40.6157C262.425 40.6157 264.181 42.3731 264.181 44.482C264.181 46.6613 264.181 42.3731 264.181 44.482ZM257.297 44.482C257.297 46.0989 258.631 47.4345 260.247 47.4345C261.863 47.4345 263.197 46.0989 263.197 44.482C263.197 42.8652 261.863 41.5295 260.247 41.5295C258.631 41.5295 257.297 42.8652 257.297 44.482C257.297 46.1692 257.297 42.8652 257.297 44.482Z" fill="#A7A9D4"/>
<path d="M208 261.616L209 261.616L209 52.6157L208 52.6157L208 261.616Z" fill="#A7A9D4"/>
<path d="M208.967 49.0374C207.066 49.0374 205.525 50.5796 205.525 52.4819C205.525 54.3843 207.066 55.9265 208.967 55.9265C210.868 55.9265 212.409 54.3843 212.409 52.4819C212.409 50.5796 210.868 49.0374 208.967 49.0374Z" fill="white"/>
<path d="M212.831 52.482C212.831 54.6613 211.075 56.3484 208.968 56.3484C206.79 56.3484 205.104 54.591 205.104 52.482C205.104 50.3028 206.86 48.6157 208.968 48.6157C211.075 48.6157 212.831 50.3731 212.831 52.482C212.831 54.6613 212.831 50.3731 212.831 52.482ZM206.017 52.482C206.017 54.0989 207.352 55.4345 208.968 55.4345C210.583 55.4345 211.918 54.0989 211.918 52.482C211.918 50.8652 210.583 49.5295 208.968 49.5295C207.352 49.5295 206.017 50.8652 206.017 52.482C206.017 54.1692 206.017 50.8652 206.017 52.482Z" fill="#A7A9D4"/>
<path d="M157 261.616L158 261.616L158 67.616L157 67.616L157 261.616Z" fill="#A7A9D4"/>
<path d="M157.688 64.1646C155.787 64.1646 154.246 65.7068 154.246 67.6091C154.246 69.5115 155.787 71.0537 157.688 71.0537C159.589 71.0537 161.13 69.5115 161.13 67.6091C161.13 65.7068 159.589 64.1646 157.688 64.1646Z" fill="white"/>
<path d="M161.552 67.6092C161.552 69.7884 159.796 71.4756 157.688 71.4756C155.511 71.4756 153.825 69.7181 153.825 67.6092C153.825 65.43 155.581 63.7429 157.688 63.7429C159.796 63.7429 161.552 65.5003 161.552 67.6092C161.552 69.7884 161.552 65.5003 161.552 67.6092ZM154.668 67.6092C154.668 69.2261 156.002 70.5617 157.618 70.5617C159.234 70.5617 160.568 69.2261 160.568 67.6092C160.568 65.9924 159.234 64.6567 157.618 64.6567C156.002 64.6567 154.668 65.9924 154.668 67.6092C154.668 69.2964 154.668 65.9924 154.668 67.6092Z" fill="#A7A9D4"/>
<path d="M105.999 261.616L106.999 261.616L106.999 92.616L105.999 92.616L105.999 261.616Z" fill="#A7A9D4"/>
<path d="M109.779 92.4819C109.779 90.5839 108.234 89.0374 106.337 89.0374C104.441 89.0374 102.895 90.5839 102.895 92.4819C102.895 94.38 104.441 95.9265 106.337 95.9265C108.304 95.9265 109.779 94.38 109.779 92.4819Z" fill="white"/>
<path d="M110.271 92.482C110.271 94.6612 108.515 96.3484 106.408 96.3484C104.23 96.3484 102.545 94.5909 102.545 92.482C102.545 90.3028 104.301 88.6156 106.408 88.6156C108.515 88.6156 110.271 90.3731 110.271 92.482C110.271 94.6612 110.271 90.3731 110.271 92.482ZM103.387 92.482C103.387 94.0989 104.722 95.4345 106.338 95.4345C107.953 95.4345 109.288 94.0989 109.288 92.482C109.288 90.8652 107.953 89.5295 106.338 89.5295C104.722 89.5295 103.387 90.8652 103.387 92.482C103.387 94.1692 103.387 90.8652 103.387 92.482Z" fill="#A7A9D4"/>
<path d="M54.6376 261.616L55.5508 261.616L55.5508 106.271L54.6376 106.271L54.6376 261.616Z" fill="#A7A9D4"/>
<path d="M58.5 106.482C58.5 104.584 56.9546 103.037 55.0579 103.037C53.1613 103.037 51.6158 104.584 51.6158 106.482C51.6158 108.38 53.1613 109.927 55.0579 109.927C56.9546 109.927 58.5 108.38 58.5 106.482Z" fill="white"/>
<path d="M58.9922 106.482C58.9922 108.661 57.236 110.348 55.1287 110.348C52.951 110.348 51.2651 108.591 51.2651 106.482C51.2651 104.303 53.0213 102.616 55.1287 102.616C57.236 102.616 58.9922 104.373 58.9922 106.482C58.9922 108.661 58.9922 104.373 58.9922 106.482ZM52.1081 106.482C52.1081 108.099 53.4428 109.435 55.0584 109.435C56.6741 109.435 58.0088 108.099 58.0088 106.482C58.0088 104.865 56.6741 103.53 55.0584 103.53C53.4428 103.53 52.1081 104.865 52.1081 106.482C52.1081 108.169 52.1081 104.865 52.1081 106.482Z" fill="#A7A9D4"/>
<path d="M4.35931 239.616L5.27246 239.616L5.27247 125.271L4.35932 125.271L4.35931 239.616Z" fill="#A7A9D4"/>
<path d="M4.77963 122.037C2.87865 122.037 1.33759 123.579 1.33759 125.482C1.33759 127.384 2.87865 128.926 4.77963 128.926C6.68061 128.926 8.22168 127.384 8.22168 125.482C8.22168 123.579 6.68061 122.037 4.77963 122.037Z" fill="white"/>
<path d="M8.64356 125.482C8.64355 127.661 6.88739 129.348 4.78 129.348C2.60236 129.348 0.916443 127.591 0.916443 125.482C0.916443 123.303 2.67261 121.615 4.78 121.615C6.95764 121.615 8.64356 123.373 8.64356 125.482C8.64355 127.661 8.64356 123.373 8.64356 125.482ZM1.82964 125.482C1.82964 127.099 3.16433 128.434 4.78 128.434C6.39567 128.434 7.73036 127.099 7.73036 125.482C7.73036 123.865 6.39567 122.529 4.78 122.529C3.16433 122.529 1.82964 123.865 1.82964 125.482C1.82964 127.169 1.82964 123.865 1.82964 125.482Z" fill="#A7A9D4"/>
<path d="M4 240.059L4.00001 167.352C90.4448 140.924 134.584 194.024 197.191 171.94C237.99 157.528 229.804 122.616 301.514 122.616C373.224 122.616 370.67 200.235 434.521 200.235C498.438 200.235 489.269 145.268 546.703 145.268C571.719 145.268 592.479 152.778 608 161.263L608 240.059C608 251.954 592.414 261.616 573.226 261.616L38.7744 261.616C19.5862 261.616 4 251.954 4 240.059Z" fill="url(#paint0_linear_82_22259)"/>
<path d="M301.473 121.616C339.65 121.616 357.265 142.496 374.225 162.688C389.941 181.343 404.74 198.986 434.469 198.986C466.032 198.986 479.325 184.823 492.16 171.146C504.602 157.913 517.437 144.196 546.577 144.196C567.924 144.196 588.551 149.456 608 159.775L605.25 161.758C586.587 151.844 566.877 146.785 546.577 146.785C519.86 146.785 508.203 159.249 495.827 172.44C482.403 186.765 468.455 201.616 434.404 201.616C402.055 201.616 385.946 182.435 370.361 163.902C353.99 144.398 337.03 124.246 301.407 124.246C257.926 124.246 244.83 137.155 231.078 150.791C222.696 159.087 213.987 167.666 198.14 173.25C167.821 183.933 141.694 177.499 113.994 170.741C82.4312 163.012 49.8861 155.04 4.89899 168.718L3.00001 166.371C49.6896 152.167 84.6577 160.705 115.566 168.273C143.462 175.111 167.494 181.019 196.045 170.943C210.975 165.683 219.357 157.387 227.477 149.375C241.294 135.738 255.635 121.616 301.473 121.616Z" fill="url(#paint1_linear_82_22259)"/>
<defs>
<linearGradient id="paint0_linear_82_22259" x1="43.7145" y1="192.12" x2="558.731" y2="192.12" gradientUnits="userSpaceOnUse">
<stop stop-color="#2E286F"/>
<stop offset="1" stop-color="#34179B"/>
</linearGradient>
<linearGradient id="paint1_linear_82_22259" x1="-105.07" y1="142.596" x2="658.952" y2="175.018" gradientUnits="userSpaceOnUse">
<stop stop-color="#548EF7"/>
<stop offset="0.227747" stop-color="#6F1E8F"/>
<stop offset="0.908546" stop-color="#5482F7"/>
</linearGradient>
</defs>
</svg>

<svg width="608" height="262" viewBox="0 0 608 262" fill="none" xmlns="http://www.w3.org/2000/svg"><path d="M567.571 227.395h.913V4.271h-.913v223.124z" fill="#A7A9D4"/><path d="M567.994 1.037a3.444 3.444 0 000 6.89 3.444 3.444 0 000-6.89z" fill="#fff"/><path d="M571.927 4.482a3.854 3.854 0 01-3.864 3.866 3.854 3.854 0 01-3.863-3.866 3.853 3.853 0 013.863-3.866c2.108 0 3.864 1.757 3.864 3.866 0 2.18 0-2.109 0 0zm-6.884 0a2.969 2.969 0 002.95 2.953 2.969 2.969 0 002.95-2.953 2.969 2.969 0 00-2.95-2.952 2.969 2.969 0 00-2.95 2.952c0 1.687 0-1.617 0 0zm-48.751 228.913h.913V10.271h-.913v223.124z" fill="#A7A9D4"/><path d="M516.714 7.037a3.443 3.443 0 00-3.442 3.445 3.443 3.443 0 003.442 3.445 3.443 3.443 0 003.442-3.445 3.443 3.443 0 00-3.442-3.445z" fill="#fff"/><path d="M520.647 10.482a3.854 3.854 0 01-3.863 3.866 3.854 3.854 0 01-3.864-3.866 3.854 3.854 0 013.864-3.866c2.107 0 3.863 1.757 3.863 3.866 0 2.18 0-2.109 0 0zm-6.884 0a2.97 2.97 0 002.951 2.953 2.97 2.97 0 002.95-2.953 2.97 2.97 0 00-2.95-2.952 2.97 2.97 0 00-2.951 2.952c0 1.687 0-1.617 0 0zm-48.75 230.913h.913V18.271h-.913v223.124z" fill="#A7A9D4"/><path d="M468.876 18.482a3.449 3.449 0 00-3.442-3.445 3.449 3.449 0 00-3.442 3.445 3.449 3.449 0 003.442 3.445 3.449 3.449 0 003.442-3.445z" fill="#fff"/><path d="M469.298 18.482a3.854 3.854 0 01-3.864 3.866 3.854 3.854 0 01-3.863-3.866 3.853 3.853 0 013.863-3.866 3.854 3.854 0 013.864 3.866c0 2.18 0-2.109 0 0zm-6.814 0a2.97 2.97 0 002.95 2.953 2.97 2.97 0 002.951-2.953 2.97 2.97 0 00-2.951-2.952 2.97 2.97 0 00-2.95 2.952c0 1.687 0-1.617 0 0zm-48.821 230.913h.913V26.271h-.913v223.124z" fill="#A7A9D4"/><path d="M414.155 23.037a3.443 3.443 0 00-3.442 3.445 3.443 3.443 0 003.442 3.445 3.443 3.443 0 003.442-3.445 3.443 3.443 0 00-3.442-3.445z" fill="#fff"/><path d="M418.019 26.482a3.854 3.854 0 01-3.864 3.866 3.853 3.853 0 01-3.863-3.866 3.853 3.853 0 013.863-3.866c2.107 0 3.864 1.757 3.864 3.866 0 2.18 0-2.109 0 0zm-6.885 0a2.97 2.97 0 002.951 2.953 2.97 2.97 0 002.95-2.953 2.97 2.97 0 00-2.95-2.953 2.97 2.97 0 00-2.951 2.953c0 1.687 0-1.617 0 0zm-48.75 227.913h.913V31.271h-.913v223.124z" fill="#A7A9D4"/><path d="M362.875 28.037a3.443 3.443 0 00-3.442 3.445 3.443 3.443 0 003.442 3.444 3.443 3.443 0 003.442-3.444 3.443 3.443 0 00-3.442-3.445z" fill="#fff"/><path d="M366.739 31.482a3.854 3.854 0 01-3.863 3.866 3.854 3.854 0 01-3.864-3.866 3.854 3.854 0 013.864-3.866c2.107 0 3.863 1.757 3.863 3.866 0 2.18 0-2.109 0 0zm-6.884 0a2.97 2.97 0 002.95 2.953 2.97 2.97 0 002.951-2.953 2.97 2.97 0 00-2.951-2.953 2.97 2.97 0 00-2.95 2.953c0 1.687 0-1.617 0 0zm-48.751 229.913h.914V38.271h-.914v223.124z" fill="#A7A9D4"/><path d="M311.527 35.037a3.443 3.443 0 00-3.442 3.445 3.443 3.443 0 003.442 3.444 3.443 3.443 0 003.442-3.444 3.443 3.443 0 00-3.442-3.445z" fill="#fff"/><path d="M315.46 38.482a3.854 3.854 0 01-3.864 3.866 3.854 3.854 0 01-3.863-3.866 3.853 3.853 0 013.863-3.866c2.108 0 3.864 1.757 3.864 3.866 0 2.18 0-2.109 0 0zm-6.884 0a2.97 2.97 0 002.95 2.953 2.97 2.97 0 002.951-2.953 2.97 2.97 0 00-2.951-2.953 2.97 2.97 0 00-2.95 2.953c0 1.687 0-1.617 0 0zM260 261.616h1v-217h-1v217z" fill="#A7A9D4"/><path d="M260.247 41.037a3.443 3.443 0 00-3.442 3.445 3.443 3.443 0 003.442 3.444 3.443 3.443 0 003.442-3.444 3.443 3.443 0 00-3.442-3.445z" fill="#fff"/><path d="M264.181 44.482a3.854 3.854 0 01-3.864 3.866 3.854 3.854 0 01-3.863-3.866 3.853 3.853 0 013.863-3.866c2.108 0 3.864 1.757 3.864 3.866 0 2.18 0-2.109 0 0zm-6.884 0a2.969 2.969 0 002.95 2.953 2.969 2.969 0 002.95-2.953 2.969 2.969 0 00-2.95-2.953 2.969 2.969 0 00-2.95 2.953c0 1.687 0-1.617 0 0zM208 261.616h1v-209h-1v209z" fill="#A7A9D4"/><path d="M208.967 49.037a3.443 3.443 0 00-3.442 3.445 3.443 3.443 0 003.442 3.444 3.443 3.443 0 003.442-3.444 3.443 3.443 0 00-3.442-3.445z" fill="#fff"/><path d="M212.831 52.482a3.853 3.853 0 01-3.863 3.866 3.854 3.854 0 01-3.864-3.866 3.854 3.854 0 013.864-3.866c2.107 0 3.863 1.757 3.863 3.866 0 2.18 0-2.109 0 0zm-6.814 0a2.97 2.97 0 002.951 2.953 2.97 2.97 0 002.95-2.953 2.97 2.97 0 00-2.95-2.953 2.97 2.97 0 00-2.951 2.953c0 1.687 0-1.617 0 0zM157 261.616h1v-194h-1v194z" fill="#A7A9D4"/><path d="M157.688 64.165a3.443 3.443 0 00-3.442 3.444 3.443 3.443 0 003.442 3.445 3.443 3.443 0 003.442-3.445 3.443 3.443 0 00-3.442-3.444z" fill="#fff"/><path d="M161.552 67.61a3.854 3.854 0 01-3.864 3.866 3.854 3.854 0 01-3.863-3.867 3.853 3.853 0 013.863-3.866c2.108 0 3.864 1.757 3.864 3.866 0 2.18 0-2.109 0 0zm-6.884 0a2.969 2.969 0 002.95 2.952 2.969 2.969 0 002.95-2.953 2.969 2.969 0 00-2.95-2.952 2.969 2.969 0 00-2.95 2.952c0 1.687 0-1.617 0 0zm-48.669 194.006h1v-169h-1v169z" fill="#A7A9D4"/><path d="M109.779 92.482a3.449 3.449 0 00-3.442-3.445 3.45 3.45 0 00-3.442 3.445 3.45 3.45 0 003.442 3.445c1.967 0 3.442-1.547 3.442-3.445z" fill="#fff"/><path d="M110.271 92.482a3.854 3.854 0 01-3.863 3.866 3.853 3.853 0 01-3.863-3.866 3.854 3.854 0 013.863-3.866c2.107 0 3.863 1.757 3.863 3.866 0 2.18 0-2.109 0 0zm-6.884 0a2.97 2.97 0 002.951 2.953 2.97 2.97 0 002.95-2.953 2.97 2.97 0 00-2.95-2.953 2.97 2.97 0 00-2.951 2.953c0 1.687 0-1.617 0 0zM54.638 261.616h.913V106.271h-.913v155.345z" fill="#A7A9D4"/><path d="M58.5 106.482a3.45 3.45 0 00-3.442-3.445 3.45 3.45 0 00-3.442 3.445 3.45 3.45 0 003.442 3.445 3.45 3.45 0 003.442-3.445z" fill="#fff"/><path d="M58.992 106.482a3.854 3.854 0 01-3.863 3.866 3.853 3.853 0 01-3.864-3.866 3.854 3.854 0 013.864-3.866c2.107 0 3.863 1.757 3.863 3.866 0 2.179 0-2.109 0 0zm-6.884 0a2.97 2.97 0 002.95 2.953 2.97 2.97 0 002.95-2.953 2.969 2.969 0 00-2.95-2.952 2.969 2.969 0 00-2.95 2.952c0 1.687 0-1.617 0 0zM4.36 239.616h.912V125.271H4.36v114.345z" fill="#A7A9D4"/><path d="M4.78 122.037a3.443 3.443 0 00-3.442 3.445 3.443 3.443 0 106.884 0 3.443 3.443 0 00-3.442-3.445z" fill="#fff"/><path d="M8.644 125.482a3.854 3.854 0 01-3.864 3.866 3.853 3.853 0 01-3.864-3.866 3.854 3.854 0 013.864-3.867 3.854 3.854 0 013.864 3.867c0 2.179 0-2.109 0 0zm-6.814 0a2.969 2.969 0 002.95 2.952 2.969 2.969 0 002.95-2.952 2.97 2.97 0 00-2.95-2.953 2.97 2.97 0 00-2.95 2.953c0 1.687 0-1.617 0 0z" fill="#A7A9D4"/><path d="M4 240.059v-72.707c86.445-26.428 130.584 26.672 193.191 4.588 40.799-14.412 32.613-49.324 104.323-49.324s69.156 77.619 133.007 77.619c63.917 0 54.748-54.967 112.182-54.967 25.016 0 45.776 7.51 61.297 15.995v78.796c0 11.895-15.586 21.557-34.774 21.557H38.774C19.586 261.616 4 251.954 4 240.059z" fill="url(#paint0_linear_82_22259)"/><path d="M301.473 121.616c38.177 0 55.792 20.88 72.752 41.072 15.716 18.655 30.515 36.298 60.244 36.298 31.563 0 44.856-14.163 57.691-27.84 12.442-13.233 25.277-26.95 54.417-26.95 21.347 0 41.974 5.26 61.423 15.579l-2.75 1.983c-18.663-9.914-38.373-14.973-58.673-14.973-26.717 0-38.374 12.464-50.75 25.655-13.424 14.325-27.372 29.176-61.423 29.176-32.349 0-48.458-19.181-64.043-37.714-16.371-19.504-33.331-39.656-68.954-39.656-43.481 0-56.577 12.909-70.329 26.545-8.382 8.296-17.091 16.875-32.938 22.459-30.319 10.683-56.446 4.249-84.146-2.509-31.563-7.729-64.108-15.701-109.095-2.023L3 166.371c46.69-14.204 81.658-5.666 112.566 1.902 27.896 6.838 51.928 12.746 80.479 2.67 14.93-5.26 23.312-13.556 31.432-21.568 13.817-13.637 28.158-27.759 73.996-27.759z" fill="url(#paint1_linear_82_22259)"/><defs><linearGradient id="paint0_linear_82_22259" x1="43.715" y1="192.12" x2="558.731" y2="192.12" gradientUnits="userSpaceOnUse"><stop stop-color="#2E286F"/><stop offset="1" stop-color="#34179B"/></linearGradient><linearGradient id="paint1_linear_82_22259" x1="-105.07" y1="142.596" x2="658.952" y2="175.018" gradientUnits="userSpaceOnUse"><stop stop-color="#548EF7"/><stop offset=".228" stop-color="#6F1E8F"/><stop offset=".909" stop-color="#5482F7"/></linearGradient></defs></svg>
